X:18
T:Cheerful Mary
T:M\`airi Ghreannar
R:Jig
S:Simon Fraser Collection
N:No.204
O:Scottish
M:6/8
L:1/8
K:B_
B|F2D F2G|B2B ~B2c|d2f c2A|B2A G2B|F2D F2A|B2F D2F|D2^C D2^F|
[B,3D3G3] [B,2D2G2]:|
|:B|B,2B B2A|B2B ~B2c|d2f c2A|B2A G2g|1f2e d2c|B2F D2F|D2 ^C D2 ^F|
G3 G2:|2 b2a g2=f|d2c B2F|D2 ^C D2^F|[B,3D3G3] [B,3D3G3]||

